!!!COM: Peter Cornelius
!!!CNT: Deutsch
!!!TXO: Deutsch
!!!OTL: Zum Ossa sprach der Pelion
!!!LYR: Droste-Hu2lshoff
!!!OPR: 6 Lieder
!!!OPS: Op. 5
!!!ONM: No. 5
!!!ENC: Ben Fuhrman
!!!YOR: CD Sheet Music, Mid-Romantic German Lieder: The Ultimate Collection.
!!!YOR: CD Sheet Music, LLC 2001
!!!ODT: 1862
!!NB: Only vocal melody encoded.
!!NB: First instance of melodic material only encoded.
!!created: 2/3/10 2:27PM
!!proofed and posted: 2/3/10 2:27 PM
**kern	**silbe
*clef G2	*
*k[]	*
*M4/4	*
*MM[Massig]	*
=4	=4
2r	.
4r	.
8r	.
{8e	{Zum
=5	=5
4a	Os-
4a	-sa
4.a	sprach
8a	der
=6	=6
4.cc	Pe-
8a-	-li-
2f}	on:}
=7	=7
4r	.
{4g	{"Was
4g	ist
8e-	fu2r
8f	ein
=8	=8
2.g	Klang
8e	in
8c	den
=9	=9
2f	Lu2f-
4e}	-ten?}
4r	.
!! Rest to measure 14
=14	=14
{4g#	{Singt
8g#	wohl
8a	die
4b	ster-
8b	-ben-
8b	-de
=15	=15
4.dd	Nach-
8b	-ti-
4g#}	gall?}
4r	.
=16	=16
{8a	{o
8g#	-der
12a	ei-
12a	-ne
12b-	ver-
4cc	-sto-
8cc	-sse-
8cc	-ne
=17	=17
2ee-	Hou-
4dd}	-ri?}
4r	.
=18	=18
{4g	{Sechs-
8g	-tau-
8g	-send
4g	Jah-
4g	-re
=19	=19
4g	mach-
8g	-ten
8g#	mich
4.a}	grau,}
{8a	{und
=20	=20
4.a	sech-
8a	-zig-
4.a	-tau-
8a	-send
=21	=21
2b-	Stun-
4c}	-den:}
4r	.
=22	=22
{4f	{sehn-
4f	-mal
8a-	fie-
8a-	-len
8f	mei-
8a-	-ne
=23	=23
4.dd-	Ce-
8f	-dern
4en}	hin,}
4r	.
=24	=24
8r	.
{8e	{und
8e	mei-
8e	-ne
4a	Fel-
8a	-sen
8a	ver-
=25	=25
2cc	-wit-
4b}	-tern,}
8r	.
{8b	{doch
=26	=26
4.cc#	nie
8cc#	drang
4.ccn	solch
8ccn	ein
=27	=27
4.cc	Ton
8b	zu
4a	mir
8r	.
8a	vom
=28	=28
2b-	Tal
8f	o-
8f	-der
8e	aus
8f	der
=29	=29
2a	Ho2-
4g#}	-he"!}
4r	.
!! Rest to measure 32
=32	=32
2r	.
4r	.
{8e	{Ei
8e	-ne
=33	=33
4cc	Mut-
8cc	-ter
8cc	am
4.cc	Han-
8a-	-ge
=34	=34
2g}	steht,}
4r	.
{4ee-	{die
=35	=35
(2dd	weint
[2cc	|
=36	=36
4cc])	|
(8bn	ihr
8a)	|
4g	ein-
4f	-zig
=37	=37
2f	So2hn-
4e}	-lein!}
4r	.
==	==
*-	*-
